src/icons/SVG/24px/Universe_WoodSaw_24px.svg

<svg width="24" height="24" viewBox="0 0 24 24" fill="none" xmlns="http://www.w3.org/2000/svg">
<g id="Square"> </g>
<g id="Icon">
<path id="Union" fill-rule="evenodd" clip-rule="evenodd" d="M2.85066 16.0927C2.46014 16.4832 2.46014 17.1164 2.85066 17.5069L7.0933 21.7496C7.48383 22.1401 8.11699 22.1401 8.50752 21.7496L10.7236 19.5335C10.893 19.5789 11.0743 19.5798 11.2493 19.5313C11.5965 19.4351 11.8652 19.1596 11.9525 18.8101L12.5167 16.5533L14.3193 16.0718C14.7484 15.9572 15.0505 15.5733 15.061 15.1292L15.103 13.3448L16.374 12.953C16.8071 12.8195 17.0962 12.4115 17.0787 11.9587L17.0083 10.1375L18.3016 9.86803C18.7723 9.76997 19.1065 9.35087 19.0975 8.87018L19.0667 7.23717L20.464 6.71815C20.7833 6.59957 21.0202 6.32668 21.0929 5.99396C21.1655 5.66123 21.0638 5.31443 20.823 5.07362L18.0535 2.30412C17.6629 1.91359 17.0298 1.91359 16.6392 2.30412L5.67909 13.2643L2.85066 16.0927ZM6.3862 15.3856L9.21462 18.214L7.80041 19.6282L4.97198 16.7998L6.3862 15.3856ZM10.7194 15.4966L10.4406 16.6116L9.21462 15.3856L12.7502 11.8501C12.9454 11.6548 12.9454 11.3382 12.7502 11.143C12.5549 10.9477 12.2383 10.9477 12.043 11.143L8.50752 14.6785L7.80041 13.9714L17.3464 4.42544L18.3068 5.3859L17.7053 5.60933C17.3069 5.75728 17.0456 6.14079 17.0536 6.56562L17.0822 8.07913L15.7724 8.35201C15.2944 8.45159 14.9582 8.88176 14.9771 9.36964L15.0505 11.2681L13.8256 11.6457C13.4145 11.7724 13.1306 12.1478 13.1205 12.5778L13.0792 14.3329L11.4315 14.773C11.0802 14.8668 10.8075 15.1439 10.7194 15.4966ZM6.91653 16.623C6.72126 16.4278 6.40468 16.4278 6.20942 16.623C6.01416 16.8183 6.01416 17.1349 6.20942 17.3301L7.27008 18.3908C7.46534 18.5861 7.78192 18.5861 7.97719 18.3908C8.17245 18.1955 8.17245 17.879 7.97719 17.6837L6.91653 16.623Z" fill="black"/>
</g>
</svg>

<svg xmlns="http://www.w3.org/2000/svg" viewBox="0 0 24 24">
  <g id="Square"> </g>
  <path fill-rule="evenodd" d="M2.85 16.093a1 1 0 000 1.414l4.243 4.243a1 1 0 001.415 0l2.216-2.216a.999.999 0 001.229-.724l.564-2.257 1.802-.481a1 1 0 00.742-.943l.042-1.784 1.271-.392a1 1 0 00.705-.994l-.07-1.822 1.293-.269a1 1 0 00.796-.998l-.031-1.633 1.397-.519a1 1 0 00.359-1.644l-2.77-2.77a1 1 0 00-1.414 0L5.68 13.264l-2.828 2.829zm3.536-.707l2.829 2.828L7.8 19.628 4.972 16.8l1.414-1.414zm4.333.11l-.278 1.116-1.226-1.226 3.535-3.536a.5.5 0 00-.707-.707l-3.535 3.535-.708-.707 9.546-9.546.96.96-.6.224a1 1 0 00-.652.957l.028 1.513-1.31.273a1 1 0 00-.795 1.018l.073 1.898-1.224.378a1 1 0 00-.706.932l-.04 1.755-1.649.44a1 1 0 00-.712.724zm-3.802 1.127a.5.5 0 00-.708.707l1.061 1.06a.5.5 0 10.707-.706l-1.06-1.061z"/>
</svg>
